!!!COM: Lassus, Rudolphus
!!!CDT: 1563-1625
!!!OPR: Geistliche Psalmen mit dreyen Stimmen
!!!ONM: 2
!!!OTL@@LAT: Quare fremuerunt gentes
!!!OTL-incipit@@DE: Warumb empören sich die Haiden
**kern	**text	**kern	**text	**kern	**text
*staff3	*staff3	*staff2	*staff2	*staff1	*staff1
*Ivox	*	*Ivox	*	*Ivox	*
*I"Bassus	*	*I"Tenor	*	*I"Cantus	*
*I'B	*	*I'T	*	*I'C	*
*clefC3	*	*clefC2	*	*clefG2	*
*k[]	*	*k[]	*	*k[]	*
*d:dor	*	*d:dor	*	*d:dor	*
*M2/1	*	*M2/1	*	*M2/1	*
*met(C|)	*	*met(C|)	*	*met(C|)	*
*MM180	*	*MM180	*	*MM180	*
=1	=1	=1	=1	=1	=1
00r	.	1d	War-	1r	.
.	.	2d	umb	1a	War-
.	.	2d	em-	.	.
=2	=2	=2	=2	=2	=2
.	.	2c	pö-	2a	umb
.	.	2d	ren	2a	em-
.	.	2e	sich	2g	pö-
.	.	2f	die	2a	ren
=3	=3	=3	=3	=3	=3
0r	.	1e	Hai-	2b	sich
.	.	.	.	2cc	die
.	.	2.d	den/	2b	Hai-
.	.	.	.	2a	den/
.	.	4e	.	.	.
=4	=4	=4	=4	=4	=4
1d	War-	4f	.	2r	.
.	.	4g	.	.	.
.	.	4a	.	2ff	.
.	.	4b	.	.	.
2d	rumb	2a	.	2ff	.
2d	em-	4r	.	2ff	.
.	.	4a	.	.	.
=5	=5	=5	=5	=5	=5
2c	pö-	2a	.	2ee	ii
2d	ren	2a	ii	2ff	.
2e	sich	2g	.	2.cc	.
2f	die	2a	.	.	.
.	.	.	.	8b	.
.	.	.	.	8a	.
=6	=6	=6	=6	=6	=6
1e	Hai-	2b	.	1g	.
.	.	2cc	.	.	.
2d	den/	1b	.	2r	.
2g	die	.	.	2.dd	.
=7	=7	=7	=7	=7	=7
4f	Hai-	1a	.	.	.
4e	.	.	.	4cc	.
4d	.	.	.	2ff	.
4e	.	.	.	.	.
2f	.	2r	.	2.cc	.
2a	den/	2f	und	.	.
.	.	.	.	8b	.
.	.	.	.	8a	.
=8	=8	=8	=8	=8	=8
2r	.	2e	wüt-	2g	.
2f	und	2d	ten	2a	.
2e	wü-	2c	so	2r	.
2d	ten	2f	von	2a	und
=9	=9	=9	=9	=9	=9
2c	so	2e	al-	2a	wü-
2B	von	2d	len	2g	ten
2A	al-	1e	sei-	2cc	so
2c	len	.	.	2g	von
=10	=10	=10	=10	=10	=10
1B	sei-	1d	ten/	4g	al-
.	.	.	.	4f#	len
.	.	.	.	2g	Sei-
2A	ten/	1r	.	2cc	ten/
1d	sind	.	.	2a	sind
=11	=11	=11	=11	=11	=11
.	.	1r	.	2b	un-
2e	um-	.	.	2.cc	ge-
1f	.	2r	.	.	.
.	.	.	.	4b	.
.	.	2d	sind	2a	.
=12	=12	=12	=12	=12	=12
2c	sti-	2e	un-	2g	sti-
2F	mes	2f	ge-	2a	mes-
2c	gri-	2e	sti-	2g	grim-
2d	men	2d	mes	2f	men
=13	=13	=13	=13	=13	=13
1A	vol/	1c	gri-	2e	vol/
.	.	.	.	2ee	.
2r	.	1B	men	2dd	.
2d	.	.	.	2b	.
=14	=14	=14	=14	=14	=14
2e	.	1A	vol/	1cc	ii
2f	.	.	.	.	.
2e	ii	1r	.	2g	.
2d	.	.	.	1a	.
=15	=15	=15	=15	=15	=15
2c	.	1r	.	.	.
2B	.	.	.	2g	.
2A	.	1e	die	1cc	.
2c	die	.	.	.	.
=16	=16	=16	=16	=16	=16
2d	leut	2f	leut	2r	.
2e	gehn	2g	gehn	2b	die
2A	umb	2a	umb	2cc	leut
2f	mit	2a	mit	2dd	gehn
=17	=17	=17	=17	=17	=17
2c	lo-	2g	lo-	2ee	um
2d	sen	2f	sen	2a	mit
2e	ren-	1g	ren-	4cc	lo-
.	.	.	.	4b	.
2c	cken/	.	.	2ee	.
=18	=18	=18	=18	=18	=18
2r	.	1f	cken/	3.aL	sen
2a	thun	.	.	6b	.
.	.	.	.	3cc	.
2g	ei-	1r	.	1dd	ren-
2f	tel	.	.	.	.
=19	=19	=19	=19	=19	=19
2e	ding,	2r	.	2g	cken/
2A	.	2a	thun	2cc	thun
2e	ii	2g	ei-	2b	ei-
2f	.	2f	tel	2a	tel
=20	=20	=20	=20	=20	=20
2c	.	2.e	ding	2g	ding
2A	mit	.	.	2cc	mit
.	.	4c	mit	.	.
4G	list	2d	list	2b	list
4G	er-	.	.	.	.
2A	den-	2c	er-	4e	er-
.	.	.	.	2a	den-
=21	=21	=21	=21	=21	=21
1E	cken,	1B	den-	.	.
.	.	.	.	8g#	.
.	.	.	.	8f#i	.
.	.	.	.	2g#i	.
2r	.	1A	cken/	2cc	cken/
2F	daß	.	.	2a	daß
=22	=22	=22	=22	=22	=22
2A	ihn	1r	.	2cc	ihn
2B	doch	.	.	2dd	doch
2c	nit	1A	daß	4ee	nit
.	.	.	.	4dd	.
2e	.	.	.	4cc	.
.	.	.	.	4dd	.
=23	=23	=23	=23	=23	=23
2A	.	2c	ihn	2ee	.
2B-	ii	2d	doch	2dd	ge-
2A	.	2e	nit	2cc	lin-
2a	ge-	2d	ge-	2.ff	.
=24	=24	=24	=24	=24	=24
1d	lin-	1f	lin-	.	.
.	.	.	.	4ee	.
.	.	.	.	2.dd	.
1A	gen	1e	gen	.	.
.	.	.	.	8cc#	.
.	.	.	.	8b	.
.	.	.	.	2cc#i	gen
=25	=25	=25	=25	=25	=25
0dll	sol.	0dll	sol.	0ddll	soll.
==	==	==	==	==	==
*-	*-	*-	*-	*-	*-
!!!RDF**kern: l = terminal maxima
!!!RDF**kern: i = editorial accidental
!!!AGN: Psalm; Tricinium
!!!LIB: Ulenberg, Caspar
!!!LIB-CDT: 1548/12/24-1617/02/16
!!!YOR: https://mdz-nbn-resolving.de/details:bsb00075346
!!!YOO: München, Bayerische Staatsbibliothek
!!!URL-scan: https://www.digitale-sammlungen.de/de/view/bsb00075346?page=12 Cantus
!!!URL-scan: https://www.digitale-sammlungen.de/de/view/bsb00075346?page=72 Tenor
!!!URL-scan: https://www.digitale-sammlungen.de/de/view/bsb00075346?page=128 Bassus
!!!EED: Wolfgang Drescher
!!!END: 2022/02/28
!!!ENC: Wolfgang Drescher
!!!EEV: 2022/03/05
!!!title: @{ONM}. @{OTL} / <i>@{OTL-incipit@@DE}</i>